sources/design/Outline/V.svg

<svg:svg xmlns:cc="http://creativecommons.org/ns#" xmlns:dc="http://purl.org/dc/elements/1.1/" xmlns:inkscape="http://www.inkscape.org/namespaces/inkscape" xmlns:rdf="http://www.w3.org/1999/02/22-rdf-syntax-ns#" xmlns:sodipodi="http://sodipodi.sourceforge.net/DTD/sodipodi-0.dtd" xmlns:svg="http://www.w3.org/2000/svg" xml:space="preserve" width="1000" height="1000" version="1.1" style="clip-rule:evenodd;fill-rule:evenodd;image-rendering:optimizeQuality;shape-rendering:geometricPrecision;text-rendering:geometricPrecision" viewBox="0 0 1000 1000" id="svg10" sodipodi:docname="V.svg" inkscape:version="1.1.1 (3bf5ae0d25, 2021-09-20)"><svg:text text-anchor="middle" x="259.1048" y="5.0859547" id="top" inkscape:label="top" style="clip-rule:evenodd;fill-rule:evenodd;image-rendering:optimizeQuality;shape-rendering:geometricPrecision;text-rendering:geometricPrecision">✛</svg:text><svg:metadata id="metadata14"><rdf:RDF><cc:Work rdf:about=""><dc:format>image/svg+xml</dc:format><dc:type rdf:resource="http://purl.org/dc/dcmitype/StillImage" /></cc:Work></rdf:RDF></svg:metadata><sodipodi:namedview pagecolor="#ffffff" bordercolor="#666666" borderopacity="1" objecttolerance="10" gridtolerance="10" guidetolerance="10" inkscape:pageopacity="0" inkscape:pageshadow="2" inkscape:window-width="1920" inkscape:window-height="1009" id="namedview12" showgrid="false" inkscape:zoom="0.84890884" inkscape:cx="242.07546" inkscape:cy="434.67565" inkscape:window-x="0" inkscape:window-y="0" inkscape:window-maximized="1" inkscape:current-layer="svg10" showguides="true" inkscape:guide-bbox="true" inkscape:document-rotation="0" inkscape:pagecheckerboard="0"><sodipodi:guide position="0,1000" orientation="0,1" id="guide16" inkscape:label="" inkscape:locked="true" inkscape:color="rgb(0,0,255)" /><sodipodi:guide position="1763.3122,2036.1693" orientation="1000,0" id="guide18" /><sodipodi:guide position="0,200" orientation="0,1" id="guide20" inkscape:label="base" inkscape:locked="true" inkscape:color="rgb(0,0,255)" /><inkscape:grid type="xygrid" id="grid24" originx="-473.37552" originy="-489.69235" /><sodipodi:guide position="0,0" orientation="0,1" id="guide34" inkscape:label="bottom" inkscape:locked="true" inkscape:color="rgb(0,0,255)" /><sodipodi:guide position="225.05109,1693.3186" orientation="0,1" id="guide44" inkscape:label="" inkscape:locked="false" inkscape:color="rgb(0,0,255)" /><sodipodi:guide position="0,900" orientation="0,1" id="guide46" inkscape:label="" inkscape:locked="true" inkscape:color="rgb(0,0,255)" /><sodipodi:guide position="508.94551,577.03789" orientation="1,0" id="guide841" inkscape:label="width" />    </sodipodi:namedview>
 <svg:defs id="defs4"><inkscape:path-effect effect="fillet_chamfer" id="path-effect3483" is_visible="true" lpeversion="1" satellites_param="F,0,1,1,0,12.927574,0,1 @ F,0,1,1,0,12.927574,0,1 @ F,0,0,1,0,0,0,1 @ F,0,0,1,0,0,0,1 @ F,0,0,1,0,0,0,1 @ F,0,0,1,0,0,0,1 @ F,0,0,1,0,0,0,1 @ F,0,0,1,0,0,0,1 @ F,0,0,1,0,0,0,1 @ F,0,1,1,0,12.927574,0,1 @ F,0,0,1,0,12.927574,0,1 @ F,0,0,1,0,0,0,1 @ F,0,0,1,0,0,0,1 @ F,0,0,1,0,0,0,1 @ F,0,0,1,0,0,0,1 @ F,0,0,1,0,0,0,1 @ F,0,0,1,0,0,0,1 @ F,0,0,1,0,0,0,1" unit="px" method="auto" mode="F" radius="0" chamfer_steps="1" flexible="false" use_knot_distance="true" apply_no_radius="true" apply_with_radius="true" only_selected="false" hide_knots="false" /><inkscape:path-effect effect="fillet_chamfer" id="path-effect852" is_visible="true" lpeversion="1" satellites_param="F,0,0,1,0,19.378622,0,1 @ F,0,0,1,0,19.378622,0,1 @ F,0,0,1,0,0,0,1 @ F,0,0,1,0,0,0,1 @ F,0,0,1,0,16.766958,0,1 @ F,0,0,1,0,0,0,1 @ F,0,0,1,0,0,0,1 @ F,0,0,1,0,24.300397,0,1 @ F,0,0,1,0,22.619514,0,1 @ F,0,0,1,0,0,0,1 @ F,0,0,1,0,0,0,1 @ F,0,0,1,0,23.124705,0,1 @ F,0,0,1,0,23.124705,0,1 @ F,0,0,1,0,0,0,1 @ F,0,0,1,0,0,0,1" unit="px" method="auto" mode="F" radius="0" chamfer_steps="1" flexible="false" use_knot_distance="true" apply_no_radius="true" apply_with_radius="true" only_selected="true" hide_knots="false" /><inkscape:path-effect effect="fillet_chamfer" id="path-effect850" is_visible="true" lpeversion="1" satellites_param="F,0,0,1,0,31.146318,0,1 @ F,0,0,1,0,26.590891,0,1 @ F,0,0,1,0,0,0,1 @ F,0,0,1,0,0,0,1 @ F,0,0,1,0,0,0,1 @ F,0,0,1,0,0,0,1 @ F,0,0,1,0,0,0,1 @ F,0,0,1,0,31.279814,0,1 @ F,0,0,1,0,31.759808,0,1 @ F,0,0,1,0,0,0,1 @ F,0,0,1,0,0,0,1 @ F,0,0,1,0,18.636631,0,1 @ F,0,0,1,0,25.996698,0,1 @ F,0,0,1,0,0,0,1 @ F,0,0,1,0,0,0,1" unit="px" method="auto" mode="F" radius="0" chamfer_steps="1" flexible="false" use_knot_distance="true" apply_no_radius="true" apply_with_radius="true" only_selected="true" hide_knots="true" /><inkscape:path-effect effect="spiro" id="path-effect885" is_visible="true" lpeversion="1" /><inkscape:path-effect effect="spiro" id="path-effect849" is_visible="true" lpeversion="1" /><inkscape:path-effect effect="spiro" id="path-effect851" is_visible="true" lpeversion="1" />
  <svg:style type="text/css" id="style2">
   
    .fil0 {fill:#EF7F1A;fill-rule:nonzero}
   
  </svg:style>
 <inkscape:path-effect effect="spiro" id="path-effect1214" is_visible="true" lpeversion="1" /><inkscape:path-effect effect="spiro" id="path-effect1195" is_visible="true" lpeversion="1" /><inkscape:path-effect effect="spiro" id="path-effect992" is_visible="true" lpeversion="1" /><inkscape:path-effect effect="spiro" id="path-effect1060" is_visible="true" lpeversion="1" /><inkscape:path-effect effect="spiro" id="path-effect1047" is_visible="true" lpeversion="1" /><inkscape:path-effect effect="spiro" id="path-effect1085" is_visible="true" lpeversion="1" /><inkscape:path-effect effect="spiro" id="path-effect1286" is_visible="true" lpeversion="1" /></svg:defs>
 
<svg:g id="path883"><svg:path style="color:#000000;clip-rule:nonzero;fill:#1a5fb4;fill-rule:nonzero;stroke-linecap:round;stroke-linejoin:round;-inkscape-stroke:none;paint-order:fill stroke markers;shape-rendering:auto" d="M 481.98242,-25.90625 C 476.27681,-26.49788 470.47044,-25.92323 464.97461,-23.982422 L 360.5332,12.898438 C 338.51582,20.673692000000003 326.89301,45.996648 334.47656,67.576172 C 344.41089,95.844991 351.57699,125.10503 355.82031,154.76172 C 365.79463,224.47249 359.58512,296.81889 341.83398,366.34766 C 325.45191,430.51399000000004 298.81461,493.93264 276.47852,561.07812 C 269.39855,582.3615100000001 262.89795,603.83473 256.87891,625.44141 C 253.187,616.93034 249.74129000000002,608.31609 246.68945000000002,599.56055 C 227.92681,545.7317 221.12743,486.47187 215.90234,425.66602 C 208.87063,343.83592 204.35706,260.51191 192.38867,176.85547 C 184.08325,118.80237 172.24391,61.260529 156.95703,4.6445312 C 153.92642,-6.5795371 145.64553,-16.985858 134.60937,-22.017578 C 123.57322000000002,-27.049298 110.41177000000002,-26.485313 99.98046900000001,-21.507812 L -2.1289063,27.214844 C -23.200157,37.26941 -32.396277,62.229239 -23.324219,83.490234 C -9.5440507,115.78501 2.5696149,148.79531 12.947266,182.33789 C 42.25063,277.05205 57.79447,376.35602 65.753906,476.58984 C 69.964541,529.6147 72.027219,585.7688499999999 86.484375,642.13477 C 101.04236,698.89378 129.42675,756.32496 179.97266000000002,794.3984399999999 C 229.56539000000004,831.75394 294.90610000000004,844.6838499999999 354.98828000000003,829.0312499999999 A 30.003,30.003 0.0 0,0 377.19336000000004,803.7246099999999 C 388.81846,710.83579 408.82538,618.98445 436.88672,529.67578 C 473.4365,413.3516 526.64367,294.68153 534.00781,163.4082 C 536.98196,110.39102 532.07504,57.008497 519.51953,5.4257812 C 515.30991,-11.868904 499.09926,-24.131361 481.98242,-25.90625 M 465.56055,39.439453 C 473.44297,79.071961 476.36370999999997,119.72181 474.10155999999995,160.04687 C 467.54867999999993,276.85859 417.57899,390.96457 379.64647999999994,511.68945 C 352.71482999999995,597.40277 333.0276799999999,685.3613 320.6523399999999,774.34766 C 284.11785999999995,778.4136100000001 245.20634999999993,768.41778 216.07226999999992,746.47266 C 180.39434,719.59842 156.86277,675.03281 144.60156,627.22852 C 132.23953,579.03111 129.90088,526.42418 125.56641,471.83984 C 117.36735,368.58841 101.29466,264.89538 70.265625,164.60352 C 60.83832,134.13264 49.978272,104.11599 37.892578,74.599609 L 104.7207,42.708984 C 116.5795,89.734837 126.12584999999999,137.34566 132.99414,185.35352 C 144.46632,265.54156 148.98435999999998,347.72778 156.12304999999998,430.80273 C 161.43238999999997,492.58909 168.29522999999998,556.94931 190.03124999999997,619.30859 C 202.89552999999998,656.21542 220.71083999999996,691.34358 242.88476999999997,723.5292999999999 A 30.003,30.003 0.0 0,0 296.89648,712.91406 C 306.70804,668.01236 318.9027,623.6290799999999 333.41016,580.01758 C 354.762,515.83089 382.11456000000004,451.1294899999999 399.9707,381.18944999999997 C 419.35462,305.26532999999995 426.50314000000003,225.15598999999997 415.21484000000004,146.26171999999997 C 411.21879,118.33315999999996 404.80877000000004,90.78907099999998 396.33594000000005,63.88671899999997 L 465.56055,39.439453" id="path21973" /></svg:g></svg:svg>

<svg:svg xmlns:cc="http://creativecommons.org/ns#" xmlns:dc="http://purl.org/dc/elements/1.1/" xmlns:inkscape="http://www.inkscape.org/namespaces/inkscape" xmlns:rdf="http://www.w3.org/1999/02/22-rdf-syntax-ns#" xmlns:sodipodi="http://sodipodi.sourceforge.net/DTD/sodipodi-0.dtd" xmlns:svg="http://www.w3.org/2000/svg" xml:space="preserve" width="1000" height="1000" version="1.1" style="clip-rule:evenodd;fill-rule:evenodd;image-rendering:optimizeQuality;shape-rendering:geometricPrecision;text-rendering:geometricPrecision" viewBox="0 0 1000 1000" id="svg10" sodipodi:docname="V.svg" inkscape:version="1.1.1 (3bf5ae0d25, 2021-09-20)"><svg:text text-anchor="middle" x="259.1048" y="5.0859547" id="top" inkscape:label="top" style="clip-rule:evenodd;fill-rule:evenodd;image-rendering:optimizeQuality;shape-rendering:geometricPrecision;text-rendering:geometricPrecision">✛</svg:text><svg:metadata id="metadata14"><rdf:RDF><cc:Work rdf:about=""><dc:format>image/svg+xml</dc:format><dc:type rdf:resource="http://purl.org/dc/dcmitype/StillImage" /></cc:Work></rdf:RDF></svg:metadata><sodipodi:namedview pagecolor="#ffffff" bordercolor="#666666" borderopacity="1" objecttolerance="10" gridtolerance="10" guidetolerance="10" inkscape:pageopacity="0" inkscape:pageshadow="2" inkscape:window-width="1920" inkscape:window-height="1009" id="namedview12" showgrid="false" inkscape:zoom="0.84890884" inkscape:cx="242.07546" inkscape:cy="434.67565" inkscape:window-x="0" inkscape:window-y="0" inkscape:window-maximized="1" inkscape:current-layer="svg10" showguides="true" inkscape:guide-bbox="true" inkscape:document-rotation="0" inkscape:pagecheckerboard="0"><sodipodi:guide position="0,1000" orientation="0,1" id="guide16" inkscape:label="" inkscape:locked="true" inkscape:color="rgb(0,0,255)" /><sodipodi:guide position="1763.3122,2036.1693" orientation="1000,0" id="guide18" /><sodipodi:guide position="0,200" orientation="0,1" id="guide20" inkscape:label="base" inkscape:locked="true" inkscape:color="rgb(0,0,255)" /><inkscape:grid type="xygrid" id="grid24" originx="-473.37552" originy="-489.69235" /><sodipodi:guide position="0,0" orientation="0,1" id="guide34" inkscape:label="bottom" inkscape:locked="true" inkscape:color="rgb(0,0,255)" /><sodipodi:guide position="225.05109,1693.3186" orientation="0,1" id="guide44" inkscape:label="" inkscape:locked="false" inkscape:color="rgb(0,0,255)" /><sodipodi:guide position="0,900" orientation="0,1" id="guide46" inkscape:label="" inkscape:locked="true" inkscape:color="rgb(0,0,255)" /><sodipodi:guide position="508.94551,577.03789" orientation="1,0" id="guide841" inkscape:label="width" />    </sodipodi:namedview>
 <svg:defs id="defs4"><inkscape:path-effect effect="fillet_chamfer" id="path-effect3483" is_visible="true" lpeversion="1" satellites_param="F,0,1,1,0,12.927574,0,1 @ F,0,1,1,0,12.927574,0,1 @ F,0,0,1,0,0,0,1 @ F,0,0,1,0,0,0,1 @ F,0,0,1,0,0,0,1 @ F,0,0,1,0,0,0,1 @ F,0,0,1,0,0,0,1 @ F,0,0,1,0,0,0,1 @ F,0,0,1,0,0,0,1 @ F,0,1,1,0,12.927574,0,1 @ F,0,0,1,0,12.927574,0,1 @ F,0,0,1,0,0,0,1 @ F,0,0,1,0,0,0,1 @ F,0,0,1,0,0,0,1 @ F,0,0,1,0,0,0,1 @ F,0,0,1,0,0,0,1 @ F,0,0,1,0,0,0,1 @ F,0,0,1,0,0,0,1" unit="px" method="auto" mode="F" radius="0" chamfer_steps="1" flexible="false" use_knot_distance="true" apply_no_radius="true" apply_with_radius="true" only_selected="false" hide_knots="false" /><inkscape:path-effect effect="fillet_chamfer" id="path-effect852" is_visible="true" lpeversion="1" satellites_param="F,0,0,1,0,19.378622,0,1 @ F,0,0,1,0,19.378622,0,1 @ F,0,0,1,0,0,0,1 @ F,0,0,1,0,0,0,1 @ F,0,0,1,0,16.766958,0,1 @ F,0,0,1,0,0,0,1 @ F,0,0,1,0,0,0,1 @ F,0,0,1,0,24.300397,0,1 @ F,0,0,1,0,22.619514,0,1 @ F,0,0,1,0,0,0,1 @ F,0,0,1,0,0,0,1 @ F,0,0,1,0,23.124705,0,1 @ F,0,0,1,0,23.124705,0,1 @ F,0,0,1,0,0,0,1 @ F,0,0,1,0,0,0,1" unit="px" method="auto" mode="F" radius="0" chamfer_steps="1" flexible="false" use_knot_distance="true" apply_no_radius="true" apply_with_radius="true" only_selected="true" hide_knots="false" /><inkscape:path-effect effect="fillet_chamfer" id="path-effect850" is_visible="true" lpeversion="1" satellites_param="F,0,0,1,0,31.146318,0,1 @ F,0,0,1,0,26.590891,0,1 @ F,0,0,1,0,0,0,1 @ F,0,0,1,0,0,0,1 @ F,0,0,1,0,0,0,1 @ F,0,0,1,0,0,0,1 @ F,0,0,1,0,0,0,1 @ F,0,0,1,0,31.279814,0,1 @ F,0,0,1,0,31.759808,0,1 @ F,0,0,1,0,0,0,1 @ F,0,0,1,0,0,0,1 @ F,0,0,1,0,18.636631,0,1 @ F,0,0,1,0,25.996698,0,1 @ F,0,0,1,0,0,0,1 @ F,0,0,1,0,0,0,1" unit="px" method="auto" mode="F" radius="0" chamfer_steps="1" flexible="false" use_knot_distance="true" apply_no_radius="true" apply_with_radius="true" only_selected="true" hide_knots="true" /><inkscape:path-effect effect="spiro" id="path-effect885" is_visible="true" lpeversion="1" /><inkscape:path-effect effect="spiro" id="path-effect849" is_visible="true" lpeversion="1" /><inkscape:path-effect effect="spiro" id="path-effect851" is_visible="true" lpeversion="1" />
  <svg:style type="text/css" id="style2">
   
    .fil0 {fill:#EF7F1A;fill-rule:nonzero}
   
  </svg:style>
 <inkscape:path-effect effect="spiro" id="path-effect1214" is_visible="true" lpeversion="1" /><inkscape:path-effect effect="spiro" id="path-effect1195" is_visible="true" lpeversion="1" /><inkscape:path-effect effect="spiro" id="path-effect992" is_visible="true" lpeversion="1" /><inkscape:path-effect effect="spiro" id="path-effect1060" is_visible="true" lpeversion="1" /><inkscape:path-effect effect="spiro" id="path-effect1047" is_visible="true" lpeversion="1" /><inkscape:path-effect effect="spiro" id="path-effect1085" is_visible="true" lpeversion="1" /><inkscape:path-effect effect="spiro" id="path-effect1286" is_visible="true" lpeversion="1" /></svg:defs>
 
<svg:g id="path883"><svg:path style="color:#000000;clip-rule:nonzero;fill:#1a5fb4;fill-rule:nonzero;stroke-linecap:round;stroke-linejoin:round;-inkscape-stroke:none;shape-rendering:auto" d="m 481.98242,-25.90625 c -5.70561,-0.59163 -11.51198,-0.01698 -17.00781,1.923828 L 360.5332,12.898438 c -22.01738,7.775254 -33.64019,33.09821 -26.05664,54.677734 9.93433,28.268819 17.10043,57.528858 21.34375,87.185548 9.97432,69.71077 3.76481,142.05717 -13.98633,211.58594 -16.38207,64.16633 -43.01937,127.58498 -65.35546,194.73046 -7.07997,21.28339 -13.58057,42.75661 -19.59961,64.36329 -3.69191,-8.51107 -7.13762,-17.12532 -10.18946,-25.88086 C 227.92681,545.7317 221.12743,486.47187 215.90234,425.66602 208.87063,343.83592 204.35706,260.51191 192.38867,176.85547 184.08325,118.80237 172.24391,61.260529 156.95703,4.6445312 153.92642,-6.5795371 145.64553,-16.985858 134.60937,-22.017578 c -11.03615,-5.03172 -24.1976,-4.467735 -34.628901,0.509766 L -2.1289063,27.214844 C -23.200157,37.26941 -32.396277,62.229239 -23.324219,83.490234 -9.5440507,115.78501 2.5696149,148.79531 12.947266,182.33789 c 29.303364,94.71416 44.847204,194.01813 52.80664,294.25195 4.210635,53.02486 6.273313,109.17901 20.730469,165.54493 14.557985,56.75901 42.942375,114.19019 93.488285,152.26367 49.59273,37.3555 114.93344,50.28541 175.01562,34.63281 a 30.003,30.003 0 0 0 22.20508,-25.30664 C 388.81846,710.83579 408.82538,618.98445 436.88672,529.67578 473.4365,413.3516 526.64367,294.68153 534.00781,163.4082 536.98196,110.39102 532.07504,57.008497 519.51953,5.4257812 515.30991,-11.868904 499.09926,-24.131361 481.98242,-25.90625 Z m -16.42187,65.345703 c 7.88242,39.632508 10.80316,80.282357 8.54101,120.607417 -6.55288,116.81172 -56.52257,230.9177 -94.45508,351.64258 -26.93165,85.71332 -46.6188,173.67185 -58.99414,262.65821 -36.53448,4.06595 -75.44599,-5.92988 -104.58007,-27.875 C 180.39434,719.59842 156.86277,675.03281 144.60156,627.22852 132.23953,579.03111 129.90088,526.42418 125.56641,471.83984 117.36735,368.58841 101.29466,264.89538 70.265625,164.60352 60.83832,134.13264 49.978272,104.11599 37.892578,74.599609 L 104.7207,42.708984 c 11.8588,47.025853 21.40515,94.636676 28.27344,142.644536 11.47218,80.18804 15.99022,162.37426 23.12891,245.44921 5.30934,61.78636 12.17218,126.14658 33.9082,188.50586 12.86428,36.90683 30.67959,72.03499 52.85352,104.22071 a 30.003,30.003 0 0 0 54.01171,-10.61524 c 9.81156,-44.9017 22.00622,-89.28498 36.51368,-132.89648 21.35184,-64.18669 48.7044,-128.88809 66.56054,-198.82813 19.38392,-75.92412 26.53244,-156.03346 15.24414,-234.92773 -3.99605,-27.92856 -10.40607,-55.472649 -18.8789,-82.375001 z" id="path21921" /></svg:g></svg:svg>
